X:374
T: "Der Wildschuetz"
N: Z1054
O: Europa, Mitteleuropa, Oesterreich
R: Romanze, Ballade, Staende -, Jaeger - Lied
M: 3/4
L: 1/8
K: G
DF | G2GdBG | GFED
DF | G3ABc | d4
DF | G2GdBG | GFED
DF | G2GFGA | B4
B2 | BAAGAB | G4

@@@ Tune index: 10132
